X:1
T:Torn Jacket
R:reel
D:Declan Masterson: Tropical Trad
M:C|
L:1/8
%%printtempo 0
Q:180
K:D
"D"F3 A d2 ed|"A"cAAB cded|"D"FEFA dfed|"A"cAGE "D"EDDE|
F3 A d2 ed|"A"cAAB cdec|"D"Adde f2 ed|"A"cAGE "D"EDDE:|
|:"D"FAdf a2 ab|"G"g2 gf gfed|"A"cA A2 cdef|gfed cAGE|
"D"FAdf a2 ab |"G"g2 gf gfed|"G"gaba "A"gfed|cAGE "D"ED D2:|
